Sources/FrostedUI/Resources/Icons.xcassets/burger32.imageset/burger-32.svg

<svg width="32" height="32" viewBox="0 0 32 32" fill="none" xmlns="http://www.w3.org/2000/svg" data-fui-icon="true">
  <path
    d="M25.9657 21.0547C27.5032 21.0547 28.7499 22.3014 28.7499 23.8389C28.7496 26.5296 26.562 28.531 23.9325 28.5312H8.06726C5.43784 28.531 3.25013 26.5296 3.24988 23.8389C3.24988 22.3014 4.49664 21.0548 6.03406 21.0547H25.9657ZM6.03406 22.5547C5.32507 22.5548 4.74988 23.1299 4.74988 23.8389C4.75012 25.6405 6.20433 27.031 8.06726 27.0312H23.9325C25.7955 27.031 27.2496 25.6406 27.2499 23.8389C27.2499 23.1298 26.6748 22.5547 25.9657 22.5547H6.03406ZM21.5282 16.6729C22.7927 14.7764 25.5802 14.7764 26.8446 16.6729C27.1649 17.1532 27.7208 17.4165 28.2655 17.4277C28.6794 17.4364 29.0083 17.7784 28.9999 18.1924C28.9914 18.6065 28.6484 18.9352 28.2343 18.9268C27.2632 18.9068 26.2227 18.444 25.5966 17.5049C24.9258 16.499 23.447 16.4991 22.7762 17.5049C21.5118 19.4014 18.7252 19.4015 17.4608 17.5049C16.7901 16.4991 15.3112 16.499 14.6405 17.5049C13.376 19.4014 10.5895 19.4015 9.32507 17.5049C8.65429 16.4991 7.17542 16.499 6.50476 17.5049C5.85123 18.4851 4.74985 18.9475 3.73425 18.9268C3.32042 18.9181 2.99154 18.576 2.99988 18.1621C3.00833 17.748 3.35145 17.4194 3.7655 17.4277C4.33345 17.4392 4.92162 17.1754 5.25671 16.6729C6.52111 14.7763 9.3086 14.7765 10.5731 16.6729C11.2438 17.6789 12.7217 17.6788 13.3925 16.6729C14.6569 14.7764 17.4444 14.7765 18.7089 16.6729C19.3796 17.6789 20.8575 17.6788 21.5282 16.6729ZM21.8983 3.0625C25.6823 3.06257 28.7499 6.13005 28.7499 9.91406C28.7499 10.6671 28.4501 11.4175 27.9813 11.9824C27.5122 12.5476 26.8081 13 25.9657 13H6.03406C5.19172 12.9999 4.48748 12.5476 4.01843 11.9824C3.54971 11.4175 3.24988 10.6671 3.24988 9.91406C3.2499 6.1301 6.31751 3.06266 10.1014 3.0625H21.8983ZM10.1014 4.5625C7.14593 4.56266 4.7499 6.95852 4.74988 9.91406C4.74988 10.2843 4.9054 10.7022 5.17273 11.0244C5.43973 11.3462 5.7533 11.4999 6.03406 11.5H25.9657C26.2465 11.5 26.56 11.3462 26.827 11.0244C27.0944 10.7022 27.2499 10.2843 27.2499 9.91406C27.2499 6.95847 24.8539 4.56257 21.8983 4.5625H10.1014Z"
    fill="currentColor"
  />
</svg>

<svg xmlns="http://www.w3.org/2000/svg" width="32" height="32" fill="none" data-fui-icon="true" viewBox="0 0 32 32"><path fill="currentColor" d="M25.966 21.055a2.784 2.784 0 0 1 2.784 2.784c0 2.69-2.188 4.692-4.817 4.692H8.067c-2.63 0-4.817-2.001-4.817-4.692a2.785 2.785 0 0 1 2.784-2.784zm-19.932 1.5c-.709 0-1.284.575-1.284 1.284 0 1.802 1.454 3.192 3.317 3.192h15.866c1.863 0 3.317-1.39 3.317-3.192 0-.71-.575-1.284-1.284-1.284zm15.494-5.882c1.265-1.897 4.052-1.897 5.317 0 .32.48.876.744 1.42.755a.75.75 0 1 1-.03 1.499c-.972-.02-2.012-.483-2.638-1.422a1.695 1.695 0 0 0-2.82 0c-1.265 1.896-4.052 1.896-5.316 0a1.695 1.695 0 0 0-2.82 0c-1.265 1.896-4.052 1.896-5.316 0a1.695 1.695 0 0 0-2.82 0c-.654.98-1.755 1.443-2.77 1.422a.75.75 0 1 1 .03-1.5c.568.012 1.157-.252 1.492-.754 1.264-1.897 4.052-1.896 5.316 0a1.694 1.694 0 0 0 2.82 0c1.264-1.897 4.051-1.896 5.316 0a1.694 1.694 0 0 0 2.82 0m.37-13.61a6.85 6.85 0 0 1 6.852 6.851c0 .753-.3 1.504-.769 2.068-.469.566-1.173 1.018-2.015 1.018H6.034c-.842 0-1.547-.452-2.016-1.018-.468-.564-.768-1.315-.768-2.068A6.85 6.85 0 0 1 10.1 3.063zm-11.797 1.5A5.35 5.35 0 0 0 4.75 9.914c0 .37.155.788.423 1.11.267.322.58.476.861.476h19.932c.28 0 .594-.154.861-.476s.423-.74.423-1.11a5.35 5.35 0 0 0-5.352-5.351z"/></svg>
